Gruvbox-Plus-Dark/apps/16/seafile.svg

<svg width="16" height="16" version="1.1" xmlns="http://www.w3.org/2000/svg">
  <defs>
    <style id="current-color-scheme" type="text/css">.ColorScheme-Text { color:#ebdbb2; } .ColorScheme-Highlight { color:#458588; }</style>
  </defs>
  <path class="ColorScheme-Text" d="m4.462 2.867c-1.568 0.8464-1.257 1.881-1.461 2.085-0.1 0.1072-0.6406-0.3049-1.492 0.257-0.314 0.208-0.606 0.916-0.681 1.355-0.043 0.248-0.057 0.083-0.304 0.083-0.3584 0-0.7421 0.3731-0.3749 0.755 0.162 0.168 0.1799 0.17 1.386 0.169 0.449 0 0.787-0.012 1.02-0.027 0.721-1.54 2.636-2.207 4.25-1.316 0.299-0.524 0.67-0.974 1.112-1.316-1e-3 -0.054-0.059-0.285-0.132-0.524-0.234-0.772-0.742-1.327-1.48-1.616-0.4431-0.1753-1.433-0.126-1.843 0.095zm6.178 2.025c-0.706-0.012-1.435 0.197-2.079 0.641-1.46 1.007-1.242 2.054-1.462 2.054-0.9871-1.204-2.182-0.9913-3.364-0.221-0.628 0.653-0.743 1.794-0.424 2.66 0.034 0.092-0.267 0.164-0.577 0.327-0.465 0.244-0.766 0.591-0.88 1.015-0.206 0.764 0.386 1.576 1.193 1.875 0.337 0.126 0.989 0.117 1.378-0.019 0.288-0.1 0.571-0.364 2.3-2.146 2.277-2.349 2.371-2.607 3.294-2.638 0.472-1e-3 0.7738 0.026 1.201 0.227 0.9339 0.4774 1.481 2.113 1.121 2.85-0.153 0.261-0.7002 0.5167-1.006 0.505-0.2958-0.01133-0.794-0.259-0.915-0.524-0.195-0.453-0.1632-0.8092 0.244-1.277-0.928 0.024-1.303 0.8109-1.333 1.43 0 0.733 0.371 1.437 0.983 1.625 0.15 0.046 1.004 0.051 2.269 0.05881 1.359-0.0078 2.092-0.02342 2.369-0.2119 1.339-0.9773 1.058-2.222 0.9363-2.611-0.246-0.722-1.354-1.501-2.072-1.012-0.126 0.143-0.246 0.018-0.268-5e-3 -0.1094-0.1094 0.3005 0.08418 0.244-1.45-0.024-0.655-0.043-0.74-0.303-1.297-0.559-1.196-1.673-1.834-2.85-1.856z" fill="currentColor"/>
</svg>

<svg xmlns="http://www.w3.org/2000/svg" style="isolation:isolate" width="16" height="16" viewBox="0 0 16 16">
 <defs>
  <style id="current-color-scheme" type="text/css">
   .ColorScheme-Text { color:#ebdbb2; } .ColorScheme-Highlight { color:#458588; }
  </style>
  <linearGradient id="arrongin" x1="0%" x2="0%" y1="0%" y2="100%">
   <stop offset="0%" style="stop-color:#d79921; stop-opacity:1"/>
   <stop offset="100%" style="stop-color:#b57614; stop-opacity:1"/>
  </linearGradient>
  <linearGradient id="aurora" x1="0%" x2="0%" y1="0%" y2="100%">
   <stop offset="0%" style="stop-color:#83a598; stop-opacity:1"/>
   <stop offset="100%" style="stop-color:#b16286; stop-opacity:1"/>
  </linearGradient>
  <linearGradient id="fitdance" x1="0%" x2="0%" y1="0%" y2="100%">
   <stop offset="0%" style="stop-color:#8ec07c; stop-opacity:1"/>
   <stop offset="100%" style="stop-color:#458588; stop-opacity:1"/>
  </linearGradient>
  <linearGradient id="oomox" x1="0%" x2="0%" y1="0%" y2="100%">
   <stop offset="0%" style="stop-color:#458588; stop-opacity:1"/>
   <stop offset="100%" style="stop-color:#928374; stop-opacity:1"/>
  </linearGradient>
  <linearGradient id="rainblue" x1="0%" x2="0%" y1="0%" y2="100%">
   <stop offset="0%" style="stop-color:#b8bb26; stop-opacity:1"/>
   <stop offset="100%" style="stop-color:#076678; stop-opacity:1"/>
  </linearGradient>
  <linearGradient id="sunrise" x1="0%" x2="0%" y1="0%" y2="100%">
   <stop offset="0%" style="stop-color: #fe8019; stop-opacity:1"/>
   <stop offset="100%" style="stop-color: #fabd2f; stop-opacity:1"/>
  </linearGradient>
  <linearGradient id="telinkrin" x1="0%" x2="0%" y1="0%" y2="100%">
   <stop offset="0%" style="stop-color: #83a598; stop-opacity:1"/>
   <stop offset="100%" style="stop-color: #83a598; stop-opacity:1"/>
  </linearGradient>
  <linearGradient id="60spsycho" x1="0%" x2="0%" y1="0%" y2="100%">
   <stop offset="0%" style="stop-color: #fb4934; stop-opacity:1"/>
   <stop offset="25%" style="stop-color: #fabd2f; stop-opacity:1"/>
   <stop offset="50%" style="stop-color: #fe8019; stop-opacity:1"/>
   <stop offset="100%" style="stop-color: #689d6a; stop-opacity:1"/>
  </linearGradient>
  <linearGradient id="90ssummer" x1="0%" x2="0%" y1="0%" y2="100%">
   <stop offset="0%" style="stop-color: #b16286; stop-opacity:1"/>
   <stop offset="20%" style="stop-color: #8ec07c; stop-opacity:1"/>
   <stop offset="50%" style="stop-color: #fabd2f; stop-opacity:1"/>
   <stop offset="100%" style="stop-color: #458588; stop-opacity:1"/>
  </linearGradient>
  <linearGradient id="cyberneon" x1="0%" x2="0%" y1="0%" y2="100%">
    <stop offset="0" style="stop-color:#83a598; stop-opacity:1"/>
    <stop offset="1" style="stop-color:#b16286; stop-opacity:1"/>
  </linearGradient>
 </defs>
 <path style="fill:currentColor" class="ColorScheme-Text" d="M 5.371 2.672 C 5.017 2.69 4.669 2.758 4.465 2.868 C 3.776 3.24 3.268 3.728 3.124 4.521 C 3.086 4.729 3.033 4.924 3.004 4.953 C 2.976 4.983 2.839 4.974 2.699 4.933 C 2.374 4.84 1.909 4.948 1.512 5.21 C 1.198 5.418 0.906 6.126 0.831 6.565 C 0.788 6.813 0.774 6.648 0.527 6.648 C 0.327 6.648 0.237 6.689 0.13 6.83 C -0.051 7.07 -0.044 7.195 0.156 7.403 C 0.318 7.571 0.332 7.573 1.538 7.572 C 1.987 7.572 2.325 7.56 2.558 7.545 C 2.691 7.261 2.865 6.992 3.097 6.75 C 4.086 5.722 5.611 5.568 6.808 6.229 C 7.107 5.705 7.478 5.255 7.92 4.913 C 7.919 4.859 7.861 4.628 7.788 4.389 C 7.554 3.617 7.046 3.062 6.308 2.773 C 6.083 2.684 5.724 2.654 5.371 2.672 Z M 10.643 4.893 C 9.937 4.881 9.208 5.09 8.564 5.534 C 7.948 5.959 7.512 6.441 7.278 7.212 C 7.215 7.419 7.136 7.588 7.102 7.588 C 7.067 7.588 6.938 7.361 6.813 7.247 C 5.926 6.437 4.582 6.489 3.738 7.367 C 3.11 8.02 2.995 9.161 3.314 10.027 C 3.348 10.119 3.047 10.191 2.737 10.354 C 2.272 10.598 1.971 10.945 1.857 11.369 C 1.651 12.133 2.243 12.945 3.05 13.244 C 3.387 13.37 4.039 13.361 4.428 13.225 C 4.716 13.125 4.999 12.861 6.728 11.079 C 9.005 8.73 9.091 8.445 10.022 8.441 C 10.494 8.44 10.831 8.467 11.223 8.668 C 11.757 8.941 12.149 9.597 12.34 10.127 C 12.517 10.62 12.519 11.22 12.344 11.518 C 12.191 11.779 11.636 12.023 11.338 12.023 C 11.042 12.023 10.544 11.764 10.423 11.499 C 10.228 11.046 10.199 10.618 10.667 10.222 C 9.739 10.246 9.629 10.591 9.334 11.652 C 9.334 12.385 9.705 13.089 10.317 13.277 C 10.467 13.323 11.301 13.342 12.586 13.328 C 14.523 13.307 14.631 13.298 14.885 13.155 C 15.257 12.945 15.686 12.466 15.853 12.071 C 16.019 11.678 16.049 10.927 15.919 10.513 C 15.673 9.791 14.538 9.012 13.82 9.501 C 13.694 9.644 13.574 9.519 13.552 9.496 C 13.529 9.473 13.65 9.364 13.711 9.145 C 13.793 8.853 13.815 8.562 13.796 8.046 C 13.772 7.391 13.753 7.306 13.493 6.749 C 12.934 5.553 11.82 4.915 10.643 4.893 Z"/>
</svg>
